assets/aboutus/Group 102.svg

<svg xmlns="http://www.w3.org/2000/svg" xmlns:xlink="http://www.w3.org/1999/xlink" width="830" height="845" fill="none" xmlns:v="https://vecta.io/nano"><g filter="url(#A)"><path d="M534 661L380 661C269.543 661 180 571.457 180 461L180 205C180 94.543 90.4569 4.99998 -20 4.99998L-152 4.99997" stroke="url(#B)" stroke-width="10"/></g><g clip-path="url(#N)"><path d="M620.005 844.998c110.457 0 200.001-89.542 200.001-199.999S730.462 445 620.005 445s-200.001 89.542-200.001 199.999 89.544 199.999 200.001 199.999z" fill="url(#C)"/><g fill-rule="evenodd"><path d="M495.009 770.001v-208c0-3.977 1.581-7.794 4.394-10.607a15 15 0 0 1 10.605-4.393h92.501c3.98 0 7.795 1.58 10.607 4.393s4.394 6.63 4.394 10.607v208H495.009z" fill="url(#D)"/><path d="M565.74 597.506a10.88 10.88 0 0 1-13.878 6.614 10.88 10.88 0 0 1-6.615-13.878 10.88 10.88 0 0 1 13.879-6.615c3.121 1.106 6.553-.529 7.659-3.651s-.529-6.553-3.65-7.659c-11.898-4.218-24.981 2.018-29.198 13.916s2.018 24.98 13.916 29.197 24.98-2.018 29.198-13.916c1.106-3.121-.53-6.553-3.651-7.659s-6.553.529-7.66 3.651z" fill="url(#E)"/><path d="M620.011 564.999c0-12.702-10.298-22.999-23.001-22.999h-84c-12.702 0-23 10.297-23 22.999v187c0 12.702 10.298 22.999 23 22.999h84c12.703 0 23.001-10.297 23.001-22.999v-187zm-10.001 0v187c0 7.18-5.82 13-13 13h-84c-7.18 0-13-5.82-13-13v-187c0-7.18 5.82-13 13-13h84c7.18 0 13 5.82 13 13z" fill="url(#F)"/><path d="M543.006 752.328h24c2.759 0 5-2.24 5-5s-2.241-5-5-5h-24c-2.76 0-5 2.24-5 5s2.24 5 5 5z" fill="#fff"/><path d="M425.006 774.999h320.001c2.76 0 5-2.24 5-5s-2.24-5-5-5H425.006c-2.76 0-5 2.241-5 5s2.24 5 5 5z" fill="url(#G)"/><path d="M474.332 764.999h-49.321c-2.759 0-5 2.24-5 4.999s2.241 5.001 5 5.001h49.321c2.76 0 5.001-2.241 5.001-5.001s-2.241-4.999-5.001-4.999z" fill="#fff"/><path d="M673.342 640.499v-16.171a5 5 0 0 0-5-5h-32.674a5 5 0 0 0-5 5v16.171c0 2.76 2.24 5 5 5s5-2.24 5-5v-11.171h22.674v11.171c0 2.76 2.24 5 5 5s5-2.24 5-5z" fill="url(#H)"/><path d="M636.303 721.828c-8.204 7.261-18.989 11.671-30.796 11.671-25.664 0-46.5-20.836-46.5-46.5s20.836-46.5 46.5-46.5h93c25.664 0 46.5 20.836 46.5 46.5s-20.836 46.5-46.5 46.5c-11.807 0-22.592-4.41-30.796-11.671-9.629-8.522-21.779-8.522-31.408 0z" fill="url(#I)"/><path d="M639.617 725.572c7.597-6.723 17.183-6.723 24.78 0a51.3 51.3 0 0 0 34.11 12.927c28.424 0 51.5-23.076 51.5-51.5s-23.076-51.5-51.5-51.5h-93c-28.424 0-51.5 23.076-51.5 51.5s23.076 51.5 51.5 51.5a51.3 51.3 0 0 0 34.11-12.927zm-6.628-7.488a41.33 41.33 0 0 1-27.482 10.415c-22.904 0-41.5-18.596-41.5-41.5s18.596-41.5 41.5-41.5h93c22.904 0 41.5 18.596 41.5 41.5s-18.596 41.5-41.5 41.5a41.33 41.33 0 0 1-27.482-10.415c-11.662-10.32-26.374-10.32-38.036 0z" fill="url(#J)"/><g fill="#fff"><path d="M627.308 682.627c1.16-.001 2.273.46 3.092 1.28s1.281 1.932 1.28 3.092l.001.001c-.001 1.159-.461 2.271-1.282 3.092s-1.931 1.28-3.091 1.281h-14.269v14.269a4.37 4.37 0 0 1-4.372 4.372 4.37 4.37 0 0 1-3.093-1.281c-.82-.82-1.282-1.931-1.281-3.091v-14.269s-8.76-.001-14.269 0a4.37 4.37 0 0 1-4.373-4.373c0-1.161.461-2.273 1.281-3.093a4.37 4.37 0 0 1 3.091-1.281l14.27.001-.001-14.27c.001-1.16.461-2.272 1.281-3.091s1.933-1.281 3.092-1.282 2.273.461 3.093 1.281a4.37 4.37 0 0 1 1.281 3.093v14.269h14.269z"/></g></g><use xlink:href="#O" fill="#fff"/><path d="M698.991 710.014a7.68 7.68 0 0 0 7.678-7.678 7.68 7.68 0 0 0-7.678-7.678 7.68 7.68 0 0 0-7.678 7.678 7.68 7.68 0 0 0 7.678 7.678z" fill="#fff"/><use xlink:href="#P" fill="#fff"/><path d="M675.978 686.999a7.68 7.68 0 0 0 7.678 7.677 7.68 7.68 0 0 0 7.678-7.677 7.68 7.68 0 0 0-7.678-7.678 7.68 7.68 0 0 0-7.678 7.678z" fill="#fff"/><g fill-rule="evenodd"><path d="M760.013 435c-38.634 0-70 31.366-70 70s31.366 70 70 70 70.001-31.367 70.001-70-31.367-70-70.001-70zm0 10c33.115 0 60 26.885 60 60s-26.885 59.999-60 59.999-60-26.885-60-59.999 26.885-60 60-60z" fill="#151515"/><path d="M657.007 624.328v-16.329a15 15 0 0 1 15-15h30c13.807 0 25.001-11.193 25.001-25v-21c0-2.759-2.24-4.999-5.001-4.999s-5 2.24-5 4.999v21c0 8.284-6.716 15-15 15h-30c-6.63 0-12.989 2.634-17.678 7.322s-7.322 11.048-7.322 17.678v16.329c0 2.76 2.24 5 5 5s5-2.24 5-5z" fill="url(#K)"/></g><path d="M760.013 565c33.137 0 60-26.863 60-60s-26.863-60-60-60-60 26.863-60 60 26.863 60 60 60z" fill="#151515"/><g fill-rule="evenodd"><path d="M760.013 445c33.115 0 60 26.885 60 60s-26.885 60-60 60-60-26.885-60-60 26.885-60 60-60zm0 10c27.596 0 50 22.404 50 50s-22.404 49.999-50 49.999-50-22.404-50-49.999 22.404-50 50-50z" fill="url(#L)"/><path d="M731.214 508.536l16.842 16.841c1.953 1.952 5.119 1.952 7.072 0l33.683-33.683c1.951-1.952 1.951-5.12 0-7.072s-5.12-1.951-7.072 0l-30.147 30.149-13.306-13.307c-1.952-1.951-5.12-1.951-7.072 0s-1.951 5.12 0 7.072z" fill="url(#M)"/></g></g><defs><filter id="A" x="-156" y="0" width="694" height="674" filterUnits="userSpaceOnUse" color-interpolation-filters="sRGB"><feFlood flood-opacity="0" result="A"/><feColorMatrix in="SourceAlpha" values="0 0 0 0 0 0 0 0 0 0 0 0 0 0 0 0 0 0 127 0" result="B"/><feOffset dy="4"/><feGaussianBlur stdDeviation="2"/><feComposite in2="B" operator="out"/><feColorMatrix values="0 0 0 0 0 0 0 0 0 0 0 0 0 0 0 0 0 0 0.25 0"/><feBlend in2="A"/><feBlend in="SourceGraphic"/></filter><linearGradient id="B" x1="1193.82" y1="731.978" x2="-538.179" y2="153.535" xlink:href="#Q"><stop stop-color="#fa8080"/><stop offset=".495" stop-color="#bf74bb"/><stop offset=".847" stop-color="#1f1f1f"/><stop offset="1" stop-color="#5a43de"/></linearGradient><linearGradient id="C" x1="490.306" y1="492.8" x2="770.322" y2="776.871" xlink:href="#Q"><stop stop-color="#ff0cf5"/><stop offset="1" stop-color="#0575e6"/></linearGradient><linearGradient id="D" x1="299.77" y1="574.238" x2="299.77" y2="763.274" xlink:href="#Q"><stop stop-color="#36ff78" stop-opacity=".8"/><stop offset="1" stop-color="#0cffff" stop-opacity=".15"/></linearGradient><linearGradient id="E" x1="548.547" y1="578.502" x2="567.824" y2="605.392" xlink:href="#Q"><stop stop-color="#ff0cf5"/><stop offset="1" stop-color="#0575e6"/></linearGradient><linearGradient id="F" x1="551.971" y1="546.999" x2="585.676" y2="769.999" xlink:href="#Q"><stop stop-color="#36ff78"/><stop offset="1" stop-color="#0cffff"/></linearGradient><linearGradient id="G" x1="420.006" y1="769.999" x2="733.007" y2="769.999" xlink:href="#Q"><stop stop-color="#3aa0fe"/><stop offset="1" stop-color="#59fef4"/></linearGradient><linearGradient id="H" x1="635.668" y1="632.414" x2="668.342" y2="632.414" xlink:href="#Q"><stop stop-color="#36ff78"/><stop offset="1" stop-color="#0cffff"/></linearGradient><linearGradient id="I" x1="604.007" y1="734.328" x2="665.507" y2="640.499" xlink:href="#Q"><stop stop-color="#a83afe"/><stop offset="1" stop-color="#6e59fe"/></linearGradient><linearGradient id="J" x1="776.007" y1="759.999" x2="642.008" y2="612.998" xlink:href="#Q"><stop stop-color="#3aa0fe"/><stop offset="1" stop-color="#59fef4"/></linearGradient><linearGradient id="K" x1="738.863" y1="624.328" x2="738.863" y2="624.328" xlink:href="#Q"><stop stop-color="#36ff78"/><stop offset="1" stop-color="#0cffff"/></linearGradient><linearGradient id="L" x1="700.013" y1="505" x2="820.013" y2="505" xlink:href="#Q"><stop stop-color="#36ff78"/><stop offset="1" stop-color="#0cffff"/></linearGradient><linearGradient id="M" x1="730.012" y1="510" x2="785.012" y2="525" xlink:href="#Q"><stop stop-color="#36ff78"/><stop offset="1" stop-color="#0cffff"/></linearGradient><clipPath id="N"><path fill="#fff" transform="translate(420 435)" d="M0 0h410v410H0z"/></clipPath><path id="O" d="M698.991 679.341a7.68 7.68 0 0 0 7.678-7.678 7.68 7.68 0 0 0-7.678-7.678 7.68 7.68 0 0 0-7.678 7.678 7.68 7.68 0 0 0 7.678 7.678z"/><path id="P" d="M706.646 686.999a7.68 7.68 0 0 0 7.678 7.677 7.68 7.68 0 0 0 7.678-7.677 7.68 7.68 0 0 0-7.678-7.678 7.68 7.68 0 0 0-7.678 7.678z"/><linearGradient id="Q" gradientUnits="userSpaceOnUse"/></defs></svg>

<svg width="830" height="845" viewBox="0 0 830 845" fill="none" xmlns="http://www.w3.org/2000/svg">
<g filter="url(#filter0_d_80_18)">
<path d="M534 661L380 661C269.543 661 180 571.457 180 461L180 205C180 94.543 90.4569 4.99998 -20 4.99998L-152 4.99997" stroke="url(#paint0_linear_80_18)" stroke-width="10"/>
</g>
<g clip-path="url(#clip0_80_18)">
<path d="M620.005 844.998C730.462 844.998 820.006 755.456 820.006 644.999C820.006 534.542 730.462 445 620.005 445C509.548 445 420.004 534.542 420.004 644.999C420.004 755.456 509.548 844.998 620.005 844.998Z" fill="url(#paint1_linear_80_18)"/>
<path fill-rule="evenodd" clip-rule="evenodd" d="M495.009 770.001V562.001C495.009 558.024 496.59 554.207 499.403 551.394C502.216 548.581 506.031 547.001 510.008 547.001C533.562 547.001 578.956 547.001 602.509 547.001C606.489 547.001 610.304 548.581 613.116 551.394C615.929 554.207 617.51 558.024 617.51 562.001C617.51 612.025 617.51 770.001 617.51 770.001H495.009Z" fill="url(#paint2_linear_80_18)"/>
<path fill-rule="evenodd" clip-rule="evenodd" d="M565.74 597.506C563.736 603.161 557.517 606.125 551.862 604.12C546.207 602.116 543.242 595.897 545.247 590.242C547.251 584.586 553.471 581.622 559.126 583.627C562.247 584.733 565.679 583.098 566.785 579.976C567.892 576.855 566.256 573.423 563.135 572.317C551.237 568.099 538.154 574.335 533.937 586.233C529.719 598.13 535.955 611.213 547.853 615.43C559.751 619.648 572.833 613.412 577.051 601.514C578.157 598.393 576.521 594.961 573.4 593.855C570.279 592.749 566.847 594.384 565.74 597.506Z" fill="url(#paint3_linear_80_18)"/>
<path fill-rule="evenodd" clip-rule="evenodd" d="M620.011 564.999C620.011 552.297 609.713 542 597.01 542C574.353 542 535.667 542 513.01 542C500.308 542 490.01 552.297 490.01 564.999C490.01 606.823 490.01 710.175 490.01 751.999C490.01 764.701 500.308 774.998 513.01 774.998H597.01C609.713 774.998 620.011 764.701 620.011 751.999V564.999ZM610.01 564.999V751.999C610.01 759.179 604.19 764.999 597.01 764.999H513.01C505.83 764.999 500.01 759.179 500.01 751.999C500.01 751.999 500.01 565.052 500.01 564.999C500.01 557.819 505.83 551.999 513.01 551.999C535.667 551.999 574.353 551.999 597.01 551.999C604.19 551.999 610.01 557.819 610.01 564.999Z" fill="url(#paint4_linear_80_18)"/>
<path fill-rule="evenodd" clip-rule="evenodd" d="M543.006 752.328H567.006C569.765 752.328 572.006 750.088 572.006 747.328C572.006 744.568 569.765 742.328 567.006 742.328H543.006C540.246 742.328 538.006 744.568 538.006 747.328C538.006 750.088 540.246 752.328 543.006 752.328Z" fill="white"/>
<path fill-rule="evenodd" clip-rule="evenodd" d="M425.006 774.999H745.007C747.767 774.999 750.007 772.759 750.007 769.999C750.007 767.24 747.767 764.999 745.007 764.999H425.006C422.246 764.999 420.006 767.24 420.006 769.999C420.006 772.759 422.246 774.999 425.006 774.999Z" fill="url(#paint5_linear_80_18)"/>
<path fill-rule="evenodd" clip-rule="evenodd" d="M474.332 764.999H425.011C422.252 764.999 420.011 767.239 420.011 769.998C420.011 772.758 422.252 774.999 425.011 774.999H474.332C477.092 774.999 479.333 772.758 479.333 769.998C479.333 767.239 477.092 764.999 474.332 764.999Z" fill="white"/>
<path fill-rule="evenodd" clip-rule="evenodd" d="M673.342 640.499V624.328C673.342 621.567 671.103 619.328 668.342 619.328H635.668C632.907 619.328 630.668 621.567 630.668 624.328V640.499C630.668 643.259 632.908 645.499 635.668 645.499C638.428 645.499 640.668 643.259 640.668 640.499V629.328H663.342V640.499C663.342 643.259 665.582 645.499 668.342 645.499C671.102 645.499 673.342 643.259 673.342 640.499Z" fill="url(#paint6_linear_80_18)"/>
<path fill-rule="evenodd" clip-rule="evenodd" d="M636.303 721.828C628.099 729.089 617.314 733.499 605.507 733.499C579.843 733.499 559.007 712.663 559.007 686.999C559.007 661.335 579.843 640.499 605.507 640.499H698.507C724.171 640.499 745.007 661.335 745.007 686.999C745.007 712.663 724.171 733.499 698.507 733.499C686.7 733.499 675.915 729.089 667.711 721.828C658.082 713.306 645.932 713.306 636.303 721.828Z" fill="url(#paint7_linear_80_18)"/>
<path fill-rule="evenodd" clip-rule="evenodd" d="M639.617 725.572C647.214 718.849 656.8 718.849 664.397 725.572C673.485 733.615 685.43 738.499 698.507 738.499C726.931 738.499 750.007 715.423 750.007 686.999C750.007 658.575 726.931 635.499 698.507 635.499H605.507C577.083 635.499 554.007 658.575 554.007 686.999C554.007 715.423 577.083 738.499 605.507 738.499C618.584 738.499 630.529 733.615 639.617 725.572ZM632.989 718.084C625.668 724.564 616.043 728.499 605.507 728.499C582.603 728.499 564.007 709.903 564.007 686.999C564.007 664.095 582.603 645.499 605.507 645.499H698.507C721.411 645.499 740.007 664.095 740.007 686.999C740.007 709.903 721.411 728.499 698.507 728.499C687.971 728.499 678.346 724.564 671.025 718.084C659.363 707.764 644.651 707.764 632.989 718.084Z" fill="url(#paint8_linear_80_18)"/>
<path fill-rule="evenodd" clip-rule="evenodd" d="M627.308 682.627C628.468 682.626 629.581 683.087 630.4 683.907C631.22 684.727 631.681 685.839 631.68 686.999L631.681 687C631.68 688.159 631.22 689.271 630.399 690.092C629.58 690.912 628.468 691.372 627.308 691.373C621.798 691.373 613.039 691.373 613.039 691.373C613.039 691.373 613.039 700.132 613.039 705.642C613.039 706.801 612.578 707.913 611.758 708.733C610.938 709.553 609.826 710.014 608.667 710.014C608.666 710.015 608.665 710.014 608.665 710.014C607.506 710.015 606.394 709.553 605.574 708.733C604.754 707.913 604.292 706.802 604.293 705.642C604.293 700.132 604.293 691.373 604.293 691.373C604.293 691.373 595.533 691.372 590.024 691.373C588.863 691.373 587.752 690.912 586.932 690.091C586.112 689.271 585.651 688.16 585.651 687C585.651 687 585.651 687 585.651 686.998C585.651 685.839 586.112 684.727 586.932 683.907C587.751 683.087 588.864 682.626 590.023 682.626C595.533 682.626 604.293 682.627 604.293 682.627C604.293 682.627 604.292 673.867 604.292 668.357C604.293 667.197 604.753 666.085 605.573 665.266C606.394 664.445 607.506 663.985 608.665 663.984C608.666 663.985 608.666 663.985 608.666 663.985C609.827 663.985 610.938 664.445 611.758 665.265C612.579 666.085 613.039 667.197 613.039 668.358C613.039 673.866 613.039 682.627 613.039 682.627C613.039 682.627 621.799 682.626 627.308 682.627Z" fill="white"/>
<path d="M698.991 679.341C703.232 679.341 706.669 675.903 706.669 671.663C706.669 667.423 703.232 663.985 698.991 663.985C694.751 663.985 691.313 667.423 691.313 671.663C691.313 675.903 694.751 679.341 698.991 679.341Z" fill="white"/>
<path d="M698.991 710.014C703.232 710.014 706.669 706.576 706.669 702.336C706.669 698.096 703.232 694.658 698.991 694.658C694.751 694.658 691.313 698.096 691.313 702.336C691.313 706.576 694.751 710.014 698.991 710.014Z" fill="white"/>
<path d="M706.646 686.999C706.646 691.239 710.084 694.676 714.324 694.676C718.565 694.676 722.002 691.239 722.002 686.999C722.002 682.758 718.565 679.321 714.324 679.321C710.084 679.321 706.646 682.758 706.646 686.999Z" fill="white"/>
<path d="M675.978 686.999C675.978 691.239 679.416 694.676 683.656 694.676C687.897 694.676 691.334 691.239 691.334 686.999C691.334 682.758 687.897 679.321 683.656 679.321C679.416 679.321 675.978 682.758 675.978 686.999Z" fill="white"/>
<path fill-rule="evenodd" clip-rule="evenodd" d="M760.013 435C721.379 435 690.013 466.366 690.013 505C690.013 543.633 721.379 575 760.013 575C798.647 575 830.014 543.633 830.014 505C830.014 466.366 798.647 435 760.013 435ZM760.013 445C793.128 445 820.013 471.885 820.013 505C820.013 538.114 793.128 564.999 760.013 564.999C726.898 564.999 700.013 538.114 700.013 505C700.013 471.885 726.898 445 760.013 445Z" fill="#151515"/>
<path fill-rule="evenodd" clip-rule="evenodd" d="M657.007 624.328V607.999C657.007 604.021 658.587 600.205 661.4 597.392C664.213 594.579 668.029 592.999 672.007 592.999H702.007C715.814 592.999 727.008 581.806 727.008 567.999C727.008 557.585 727.008 546.999 727.008 546.999C727.008 544.24 724.768 542 722.007 542C719.247 542 717.007 544.24 717.007 546.999V567.999C717.007 576.283 710.291 582.999 702.007 582.999H672.007C665.377 582.999 659.018 585.633 654.329 590.321C649.641 595.01 647.007 601.369 647.007 607.999V624.328C647.007 627.088 649.247 629.328 652.007 629.328C654.767 629.328 657.007 627.088 657.007 624.328Z" fill="url(#paint9_linear_80_18)"/>
<path d="M760.013 565C793.15 565 820.013 538.137 820.013 505C820.013 471.863 793.15 445 760.013 445C726.876 445 700.013 471.863 700.013 505C700.013 538.137 726.876 565 760.013 565Z" fill="#151515"/>
<path fill-rule="evenodd" clip-rule="evenodd" d="M760.013 445C793.128 445 820.013 471.885 820.013 505C820.013 538.115 793.128 565 760.013 565C726.898 565 700.013 538.115 700.013 505C700.013 471.885 726.898 445 760.013 445ZM760.013 455C787.609 455 810.013 477.404 810.013 505C810.013 532.595 787.609 554.999 760.013 554.999C732.417 554.999 710.013 532.595 710.013 505C710.013 477.404 732.417 455 760.013 455Z" fill="url(#paint10_linear_80_18)"/>
<path fill-rule="evenodd" clip-rule="evenodd" d="M731.214 508.536L748.056 525.377C750.009 527.329 753.175 527.329 755.128 525.377L788.811 491.694C790.762 489.742 790.762 486.574 788.811 484.622C786.859 482.671 783.691 482.671 781.739 484.622L751.592 514.771L738.286 501.464C736.334 499.513 733.166 499.513 731.214 501.464C729.263 503.416 729.263 506.584 731.214 508.536Z" fill="url(#paint11_linear_80_18)"/>
</g>
<defs>
<filter id="filter0_d_80_18" x="-156" y="0" width="694" height="674" filterUnits="userSpaceOnUse" color-interpolation-filters="sRGB">
<feFlood flood-opacity="0" result="BackgroundImageFix"/>
<feColorMatrix in="SourceAlpha" type="matrix" values="0 0 0 0 0 0 0 0 0 0 0 0 0 0 0 0 0 0 127 0" result="hardAlpha"/>
<feOffset dy="4"/>
<feGaussianBlur stdDeviation="2"/>
<feComposite in2="hardAlpha" operator="out"/>
<feColorMatrix type="matrix" values="0 0 0 0 0 0 0 0 0 0 0 0 0 0 0 0 0 0 0.25 0"/>
<feBlend mode="normal" in2="BackgroundImageFix" result="effect1_dropShadow_80_18"/>
<feBlend mode="normal" in="SourceGraphic" in2="effect1_dropShadow_80_18" result="shape"/>
</filter>
<linearGradient id="paint0_linear_80_18" x1="1193.82" y1="731.978" x2="-538.179" y2="153.535" gradientUnits="userSpaceOnUse">
<stop stop-color="#FA8080"/>
<stop offset="0.494792" stop-color="#BF74BB"/>
<stop offset="0.846516" stop-color="#1F1F1F"/>
<stop offset="1" stop-color="#5A43DE"/>
</linearGradient>
<linearGradient id="paint1_linear_80_18" x1="490.306" y1="492.8" x2="770.322" y2="776.871" gradientUnits="userSpaceOnUse">
<stop stop-color="#FF0CF5"/>
<stop offset="1" stop-color="#0575E6"/>
</linearGradient>
<linearGradient id="paint2_linear_80_18" x1="299.77" y1="574.238" x2="299.77" y2="763.274" gradientUnits="userSpaceOnUse">
<stop stop-color="#36FF78" stop-opacity="0.8"/>
<stop offset="1" stop-color="#0CFFFF" stop-opacity="0.15"/>
</linearGradient>
<linearGradient id="paint3_linear_80_18" x1="548.547" y1="578.502" x2="567.824" y2="605.392" gradientUnits="userSpaceOnUse">
<stop stop-color="#FF0CF5"/>
<stop offset="1" stop-color="#0575E6"/>
</linearGradient>
<linearGradient id="paint4_linear_80_18" x1="551.971" y1="546.999" x2="585.676" y2="769.999" gradientUnits="userSpaceOnUse">
<stop stop-color="#36FF78"/>
<stop offset="1" stop-color="#0CFFFF"/>
</linearGradient>
<linearGradient id="paint5_linear_80_18" x1="420.006" y1="769.999" x2="733.007" y2="769.999" gradientUnits="userSpaceOnUse">
<stop stop-color="#3AA0FE"/>
<stop offset="1" stop-color="#59FEF4"/>
</linearGradient>
<linearGradient id="paint6_linear_80_18" x1="635.668" y1="632.414" x2="668.342" y2="632.414" gradientUnits="userSpaceOnUse">
<stop stop-color="#36FF78"/>
<stop offset="1" stop-color="#0CFFFF"/>
</linearGradient>
<linearGradient id="paint7_linear_80_18" x1="604.007" y1="734.328" x2="665.507" y2="640.499" gradientUnits="userSpaceOnUse">
<stop stop-color="#A83AFE"/>
<stop offset="1" stop-color="#6E59FE"/>
</linearGradient>
<linearGradient id="paint8_linear_80_18" x1="776.007" y1="759.999" x2="642.008" y2="612.998" gradientUnits="userSpaceOnUse">
<stop stop-color="#3AA0FE"/>
<stop offset="1" stop-color="#59FEF4"/>
</linearGradient>
<linearGradient id="paint9_linear_80_18" x1="738.863" y1="624.328" x2="738.863" y2="624.328" gradientUnits="userSpaceOnUse">
<stop stop-color="#36FF78"/>
<stop offset="1" stop-color="#0CFFFF"/>
</linearGradient>
<linearGradient id="paint10_linear_80_18" x1="700.013" y1="505" x2="820.013" y2="505" gradientUnits="userSpaceOnUse">
<stop stop-color="#36FF78"/>
<stop offset="1" stop-color="#0CFFFF"/>
</linearGradient>
<linearGradient id="paint11_linear_80_18" x1="730.012" y1="510" x2="785.012" y2="525" gradientUnits="userSpaceOnUse">
<stop stop-color="#36FF78"/>
<stop offset="1" stop-color="#0CFFFF"/>
</linearGradient>
<clipPath id="clip0_80_18">
<rect width="410" height="410" fill="white" transform="translate(420 435)"/>
</clipPath>
</defs>
</svg>
